assets/img/braze_icons/arrow-square-up-right.svg

<svg fill="none" height="24" viewBox="0 0 24 24" width="24" xmlns="http://www.w3.org/2000/svg"><path clip-rule="evenodd" d="m17.8385 2h-11.67704c-.52713-.00002-.98192-.00003-1.35649.03057-.39534.0323-.78856.10362-1.16694.29641-.56449.28762-1.02343.74656-1.31105 1.31105-.19279.37838-.26411.7716-.29641 1.16694-.0306.37457-.03059.82932-.03057 1.35645v11.67708c-.00002.5272-.00003.982.03057 1.3565.0323.3954.10362.7886.29641 1.167.28762.5645.74656 1.0234 1.31105 1.311.37838.1928.7716.2641 1.16694.2964.37457.0306.82933.0306 1.35647.0306h11.67716c.5271 0 .9819 0 1.3564-.0306.3954-.0323.7886-.1036 1.167-.2964.5645-.2876 1.0234-.7465 1.311-1.311.1928-.3784.2641-.7716.2964-1.167.0306-.3745.0306-.8293.0306-1.3564v-11.67716c0-.52714 0-.9819-.0306-1.35647-.0323-.39534-.1036-.78856-.2964-1.16694-.2876-.56449-.7465-1.02343-1.311-1.31105-.3784-.19279-.7716-.26411-1.167-.29641-.3745-.0306-.8293-.03059-1.3565-.03057zm-9.83825 7c0-.55228.44771-1 1-1h5.99995c.5523 0 1 .44772 1 1v6c0 .5523-.4477 1-1 1-.5522 0-1-.4477-1-1v-3.586l-4.29309 4.2931c-.39053.3905-1.02369.3905-1.41422 0-.39052-.3905-.39052-1.0237 0-1.4142l4.29291-4.2929h-3.58555c-.55229 0-1-.44771-1-1z" fill="#801ed7" fill-rule="evenodd"/></svg>

<svg width="24" height="24" viewBox="0 0 24 24" fill="none" xmlns="http://www.w3.org/2000/svg">
<path fill-rule="evenodd" clip-rule="evenodd" d="M17.8385 2H6.16146C5.63433 1.99998 5.17954 1.99997 4.80497 2.03057C4.40963 2.06287 4.01641 2.13419 3.63803 2.32698C3.07354 2.6146 2.6146 3.07354 2.32698 3.63803C2.13419 4.01641 2.06287 4.40963 2.03057 4.80497C1.99997 5.17954 1.99998 5.63429 2 6.16142V17.8385C1.99998 18.3657 1.99997 18.8205 2.03057 19.195C2.06287 19.5904 2.13419 19.9836 2.32698 20.362C2.6146 20.9265 3.07354 21.3854 3.63803 21.673C4.01641 21.8658 4.40963 21.9371 4.80497 21.9694C5.17954 22 5.6343 22 6.16144 22H17.8386C18.3657 22 18.8205 22 19.195 21.9694C19.5904 21.9371 19.9836 21.8658 20.362 21.673C20.9265 21.3854 21.3854 20.9265 21.673 20.362C21.8658 19.9836 21.9371 19.5904 21.9694 19.195C22 18.8205 22 18.3657 22 17.8386V6.16144C22 5.6343 22 5.17954 21.9694 4.80497C21.9371 4.40963 21.8658 4.01641 21.673 3.63803C21.3854 3.07354 20.9265 2.6146 20.362 2.32698C19.9836 2.13419 19.5904 2.06287 19.195 2.03057C18.8205 1.99997 18.3657 1.99998 17.8385 2ZM8.00025 9C8.00025 8.44772 8.44796 8 9.00025 8H15.0002C15.5525 8 16.0002 8.44772 16.0002 9V15C16.0002 15.5523 15.5525 16 15.0002 16C14.448 16 14.0002 15.5523 14.0002 15V11.414L9.70711 15.7071C9.31658 16.0976 8.68342 16.0976 8.29289 15.7071C7.90237 15.3166 7.90237 14.6834 8.29289 14.2929L12.5858 10H9.00025C8.44796 10 8.00025 9.55229 8.00025 9Z" fill="#801ED7"/>
</svg>
